; generated by Slic3r 1.2.9 on 2020-01-29 at 10:35:43

; external perimeters extrusion width = 0.40mm
; perimeters extrusion width = 0.48mm
; infill extrusion width = 0.48mm
; solid infill extrusion width = 0.48mm
; top infill extrusion width = 0.48mm

M107
M190 S60 ; set bed temperature
M104 S200 ; set temperature
G28 ; home all axes
G1 Z5 F5000 ; lift nozzle

M109 S200 ; wait for temperature to be reached
G21 ; set units to millimeters
G90 ; use absolute coordinates
M82 ; use absolute distances for extrusion
G92 E0
G1 Z0.350 F7800.000
G1 E-2.00000 F2400.00000
G92 E0
G1 X55.251 Y65.470 F7800.000
G1 E2.00000 F2400.00000
G1 X56.668 Y64.274 E2.05968 F1800.000
G1 X58.820 Y63.481 E2.13348
G1 X60.000 Y63.375 E2.17160
G1 X140.000 Y63.375 E4.74592
G1 X142.259 Y63.772 E4.81972
G1 X144.247 Y64.915 E4.89352 F1800.000
G1 X145.726 Y66.668 E4.96732
G1 X146.519 Y68.820 E5.04112
G1 X146.625 Y70.000 E5.07924
G1 X146.625 Y130.000 E7.00997
G1 X146.228 Y132.259 E7.08377
G1 X145.085 Y134.247 E7.15758
G1 X143.332 Y135.726 E7.23138
G1 X141.180 Y136.519 E7.30518
G1 X140.000 Y136.625 E7.34329
G1 X60.000 Y136.625 E9.91761
G1 X57.741 Y136.228 E9.99141
G1 X55.753 Y135.085 E10.06521
G1 X54.274 Y133.332 E10.13901
G1 X53.481 Y131.180 E10.21281
G1 X53.375 Y130.000 E10.25093
G1 X53.375 Y70.000 E12.18167
G1 X53.772 Y67.741 E12.25547
G1 X54.915 Y65.753 E12.32927
G1 X55.205 Y65.509 E12.34146
G1 E10.34146 F2400.00000
G92 E0
G1 X138.400 Y128.400 F7800.000
G1 E2.00000 F2400.00000
G1 X61.600 Y128.400 E4.47136 F1800.000
G1 X61.600 Y71.600 E6.29914
G1 X138.400 Y71.600 E8.77050
G1 X138.400 Y128.340 E10.59635
G1 X139.025 Y129.025 F7800.000
G1 X60.975 Y129.025 E13.10792 F1800.000
G1 X60.975 Y70.975 E14.97592
G1 X139.025 Y70.975 E17.48749
G1 X139.025 Y128.965 E19.35356
G1 X139.650 Y129.650 F7800.000
G1 X60.350 Y129.650 E21.90535 F1800.000
G1 X60.350 Y70.350 E23.81356
G1 X139.650 Y70.350 E26.36536
G1 X139.650 Y129.590 E28.27164
G1 X139.304 Y129.450 F7800.000
G1 X138.022 Y72.283 F7800.000
G1 X137.717 Y71.978 E28.28560 F1800.000
G1 X136.828 Y71.978 E28.31433
G1 X138.022 Y73.172 E28.36893
G1 X138.022 Y74.060 E28.39767
G1 X135.940 Y71.978 E28.49290
G1 X135.051 Y71.978 E28.52164
G1 X138.022 Y74.949 E28.65751
G1 X138.022 Y75.837 E28.68625
G1 X134.163 Y71.978 E28.86276
G1 X133.275 Y71.978 E28.89150
G1 X138.022 Y76.725 E29.10865
G1 X138.022 Y77.614 E29.13739
G1 X132.386 Y71.978 E29.39518
G1 X131.498 Y71.978 E29.42391
G1 X138.022 Y78.502 E29.72234
G1 X138.022 Y79.390 E29.75108
G1 X130.610 Y71.978 E30.09015
G1 X129.721 Y71.978 E30.11888
G1 X138.022 Y80.279 E30.49859
G1 X138.022 Y81.167 E30.52733
G1 X128.833 Y71.978 E30.94767
G1 X127.945 Y71.978 E30.97641
G1 X138.022 Y82.055 E31.43739
G1 X138.022 Y82.944 E31.46613
G1 X127.056 Y71.978 E31.96775
G1 X126.168 Y71.978 E31.99649
G1 X138.022 Y83.832 E32.53875
G1 X138.022 Y84.720 E32.56749
G1 X125.280 Y71.978 E33.15039
G1 X124.391 Y71.978 E33.17913
G1 X138.022 Y85.609 E33.80267
G1 X138.022 Y86.497 E33.83140
G1 X123.503 Y71.978 E34.49558
G1 X122.615 Y71.978 E34.52432
G1 X138.022 Y87.385 E35.22914
G1 X138.022 Y88.274 E35.25787
G1 X121.726 Y71.978 E36.00333
G1 X120.838 Y71.978 E36.03207
G1 X138.022 Y89.162 E36.81816
G1 X138.022 Y90.051 E36.84690
G1 X119.949 Y71.978 E37.67363
G1 X119.061 Y71.978 E37.70237
G1 X138.022 Y90.939 E38.56974
G1 X138.022 Y91.827 E38.59848
G1 X118.173 Y71.978 E39.50649
G1 X117.284 Y71.978 E39.53523
G1 X138.022 Y92.716 E40.48388
G1 X138.022 Y93.604 E40.51262
G1 X116.396 Y71.978 E41.50191
G1 X115.508 Y71.978 E41.53064
G1 X138.022 Y94.492 E42.56057
G1 X138.022 Y95.381 E42.58931
G1 X114.619 Y71.978 E43.65987
G1 X113.731 Y71.978 E43.68861
G1 X138.022 Y96.269 E44.79982
G1 X138.022 Y97.157 E44.82855
G1 X112.843 Y71.978 E45.98040
G1 X111.954 Y71.978 E46.00914
G1 X138.022 Y98.046 E47.20162
G1 X138.022 Y98.934 E47.23036
G1 X111.066 Y71.978 E48.46348
G1 X110.178 Y71.978 E48.49221
G1 X138.022 Y99.822 E49.76598
G1 X138.022 Y100.711 E49.79471
G1 X109.289 Y71.978 E51.10911
G1 X108.401 Y71.978 E51.13785
G1 X138.022 Y101.599 E52.49289
G1 X138.022 Y102.488 E52.52163
G1 X107.512 Y71.978 E53.91730
G1 X106.624 Y71.978 E53.94604
G1 X138.022 Y103.376 E55.38236
G1 X138.022 Y104.264 E55.41109
G1 X105.736 Y71.978 E56.88805
G1 X104.847 Y71.978 E56.91679
G1 X138.022 Y105.153 E58.43438
G1 X138.022 Y106.041 E58.46312
G1 X103.959 Y71.978 E60.02135
G1 X103.071 Y71.978 E60.05009
G1 X138.022 Y106.929 E61.64896
G1 X138.022 Y107.818 E61.67770
G1 X102.182 Y71.978 E63.31721
G1 X101.294 Y71.978 E63.34594
G1 X138.022 Y108.706 E65.02609
G1 X138.022 Y109.594 E65.05483
G1 X100.406 Y71.978 E66.77562
G1 X99.517 Y71.978 E66.80436
G1 X138.022 Y110.483 E68.56578
G1 X138.022 Y111.371 E68.59452
G1 X98.629 Y71.978 E70.39659
G1 X97.741 Y71.978 E70.42532
G1 X138.022 Y112.259 E72.26803
G1 X138.022 Y113.148 E72.29677
G1 X96.852 Y71.978 E74.18011
G1 X95.964 Y71.978 E74.20885
G1 X138.022 Y114.036 E76.13283
G1 X138.022 Y114.924 E76.16157
G1 X95.076 Y71.978 E78.12619
G1 X94.187 Y71.978 E78.15492
G1 X138.022 Y115.813 E80.16019
G1 X138.022 Y116.701 E80.18892
G1 X93.299 Y71.978 E82.23482
G1 X92.410 Y71.978 E82.26356
G1 X138.022 Y117.590 E84.35010
G1 X138.022 Y118.478 E84.37883
G1 X91.522 Y71.978 E86.50601
G1 X90.634 Y71.978 E86.53475
G1 X138.022 Y119.366 E88.70256
G1 X138.022 Y120.255 E88.73130
G1 X89.745 Y71.978 E90.93975
G1 X88.857 Y71.978 E90.96849
G1 X138.022 Y121.143 E93.21759
G1 X138.022 Y122.031 E93.24632
G1 X87.969 Y71.978 E95.53605
G1 X87.080 Y71.978 E95.56479
G1 X138.022 Y122.920 E97.89516
G1 X138.022 Y123.808 E97.92390
G1 X86.192 Y71.978 E100.29491
G1 X85.304 Y71.978 E100.32365
G1 X138.022 Y124.696 E102.73529
G1 X138.022 Y125.585 E102.76403
G1 X84.415 Y71.978 E105.21632
G1 X83.527 Y71.978 E105.24506
G1 X138.022 Y126.473 E107.73798
G1 X138.022 Y127.361 E107.76672
G1 X82.639 Y71.978 E110.30029
G1 X81.750 Y71.978 E110.32902
G1 X137.794 Y128.022 E112.89279
G1 X136.905 Y128.022 E112.92153
G1 X80.862 Y71.978 E115.48529
G1 X79.974 Y71.978 E115.51403
G1 X136.017 Y128.022 E118.07780
G1 X135.128 Y128.022 E118.10653
G1 X79.085 Y71.978 E120.67030
G1 X78.197 Y71.978 E120.69904
G1 X134.240 Y128.022 E123.26281
G1 X133.352 Y128.022 E123.29154
G1 X77.308 Y71.978 E125.85531
G1 X76.420 Y71.978 E125.88405
G1 X132.463 Y128.022 E128.44782
G1 X131.575 Y128.022 E128.47655
G1 X75.532 Y71.978 E131.04032
G1 X74.643 Y71.978 E131.06906
G1 X130.687 Y128.022 E133.63282
G1 X129.798 Y128.022 E133.66156
G1 X73.755 Y71.978 E136.22533
G1 X72.867 Y71.978 E136.25406
G1 X128.910 Y128.022 E138.81783
G1 X128.022 Y128.022 E138.84657
G1 X71.978 Y71.978 E141.41034
G1 X71.090 Y71.978 E141.43907
G1 X127.133 Y128.022 E144.00284
G1 X126.245 Y128.022 E144.03158
G1 X70.202 Y71.978 E146.59535
G1 X69.313 Y71.978 E146.62408
G1 X125.357 Y128.022 E149.18785
G1 X124.468 Y128.022 E149.21659
G1 X68.425 Y71.978 E151.78035
G1 X67.537 Y71.978 E151.80909
G1 X123.580 Y128.022 E154.37286
G1 X122.691 Y128.022 E154.40159
G1 X66.648 Y71.978 E156.96536
G1 X65.760 Y71.978 E156.99410
G1 X121.803 Y128.022 E159.55787
G1 X120.915 Y128.022 E159.58660
G1 X64.871 Y71.978 E162.15037
G1 X63.983 Y71.978 E162.17911
G1 X120.026 Y128.022 E164.74288
G1 X119.138 Y128.022 E164.77161
G1 X63.095 Y71.978 E167.33538
G1 X62.206 Y71.978 E167.36412
G1 X118.250 Y128.022 E169.92788
G1 X117.361 Y128.022 E169.95662
G1 X61.978 Y72.639 E172.49018
G1 X61.978 Y73.527 E172.51892
G1 X116.473 Y128.022 E175.01184
G1 X115.585 Y128.022 E175.04058
G1 X61.978 Y74.415 E177.49286
G1 X61.978 Y75.304 E177.52160
G1 X114.696 Y128.022 E179.93325
G1 X113.808 Y128.022 E179.96198
G1 X61.978 Y76.192 E182.33299
G1 X61.978 Y77.080 E182.36173
G1 X112.920 Y128.022 E184.69209
G1 X112.031 Y128.022 E184.72083
G1 X61.978 Y77.969 E187.01056
G1 X61.978 Y78.857 E187.03930
G1 X111.143 Y128.022 E189.28839
G1 X110.255 Y128.022 E189.31712
G1 X61.978 Y79.745 E191.52557
G1 X61.978 Y80.634 E191.55431
G1 X109.366 Y128.022 E193.72212
G1 X108.478 Y128.022 E193.75086
G1 X61.978 Y81.522 E195.87803
G1 X61.978 Y82.411 E195.90677
G1 X107.589 Y128.022 E197.99330
G1 X106.701 Y128.022 E198.02204
G1 X61.978 Y83.299 E200.06794
G1 X61.978 Y84.187 E200.09667
G1 X105.813 Y128.022 E202.10193
G1 X104.924 Y128.022 E202.13067
G1 X61.978 Y85.076 E204.09529
G1 X61.978 Y85.964 E204.12402
G1 X104.036 Y128.022 E206.04800
G1 X103.148 Y128.022 E206.07674
G1 X61.978 Y86.852 E207.96008
G1 X61.978 Y87.741 E207.98881
G1 X102.259 Y128.022 E209.83152
G1 X101.371 Y128.022 E209.86025
G1 X61.978 Y88.629 E211.66232
G1 X61.978 Y89.517 E211.69105
G1 X100.483 Y128.022 E213.45248
G1 X99.594 Y128.022 E213.48121
G1 X61.978 Y90.406 E215.20200
G1 X61.978 Y91.294 E215.23073
G1 X98.706 Y128.022 E216.91088
G1 X97.818 Y128.022 E216.93962
G1 X61.978 Y92.182 E218.57913
G1 X61.978 Y93.071 E218.60786
G1 X96.929 Y128.022 E220.20673
G1 X96.041 Y128.022 E220.23547
G1 X61.978 Y93.959 E221.79370
G1 X61.978 Y94.847 E221.82243
G1 X95.152 Y128.022 E223.34002
G1 X94.264 Y128.022 E223.36876
G1 X61.978 Y95.736 E224.84571
G1 X61.978 Y96.624 E224.87445
G1 X93.376 Y128.022 E226.31076
G1 X92.487 Y128.022 E226.33950
G1 X61.978 Y97.513 E227.73517
G1 X61.978 Y98.401 E227.76391
G1 X91.599 Y128.022 E229.11895
G1 X90.711 Y128.022 E229.14768
G1 X61.978 Y99.289 E230.46208
G1 X61.978 Y100.178 E230.49082
G1 X89.822 Y128.022 E231.76457
G1 X88.934 Y128.022 E231.79331
G1 X61.978 Y101.066 E233.02643
G1 X61.978 Y101.954 E233.05517
G1 X88.046 Y128.022 E234.24765
G1 X87.157 Y128.022 E234.27638
G1 X61.978 Y102.843 E235.42822
G1 X61.978 Y103.731 E235.45696
G1 X86.269 Y128.022 E236.56816
G1 X85.381 Y128.022 E236.59690
G1 X61.978 Y104.619 E237.66746
G1 X61.978 Y105.508 E237.69620
G1 X84.492 Y128.022 E238.72613
G1 X83.604 Y128.022 E238.75486
G1 X61.978 Y106.396 E239.74415
G1 X61.978 Y107.284 E239.77288
G1 X82.716 Y128.022 E240.72153
G1 X81.827 Y128.022 E240.75027
G1 X61.978 Y108.173 E241.65828
G1 X61.978 Y109.061 E241.68701
G1 X80.939 Y128.022 E242.55438
G1 X80.050 Y128.022 E242.58312
G1 X61.978 Y109.950 E243.40985
G1 X61.978 Y110.838 E243.43859
G1 X79.162 Y128.022 E244.22468
G1 X78.274 Y128.022 E244.25341
G1 X61.978 Y111.726 E244.99887
G1 X61.978 Y112.615 E245.02760
G1 X77.385 Y128.022 E245.73242
G1 X76.497 Y128.022 E245.76115
G1 X61.978 Y113.503 E246.42533
G1 X61.978 Y114.391 E246.45407
G1 X75.609 Y128.022 E247.07760
G1 X74.720 Y128.022 E247.10634
G1 X61.978 Y115.280 E247.68924
G1 X61.978 Y116.168 E247.71797
G1 X73.832 Y128.022 E248.26023
G1 X72.944 Y128.022 E248.28897
G1 X61.978 Y117.056 E248.79059
G1 X61.978 Y117.945 E248.81932
G1 X72.055 Y128.022 E249.28031
G1 X71.167 Y128.022 E249.30904
G1 X61.978 Y118.833 E249.72939
G1 X61.978 Y119.721 E249.75812
G1 X70.279 Y128.022 E250.13783
G1 X69.390 Y128.022 E250.16656
G1 X61.978 Y120.610 E250.50563
G1 X61.978 Y121.498 E250.53436
G1 X68.502 Y128.022 E250.83279
G1 X67.614 Y128.022 E250.86152
G1 X61.978 Y122.386 E251.11931
G1 X61.978 Y123.275 E251.14805
G1 X66.725 Y128.022 E251.36520
G1 X65.837 Y128.022 E251.39393
G1 X61.978 Y124.163 E251.57044
G1 X61.978 Y125.052 E251.59918
G1 X64.948 Y128.022 E251.73505
G1 X64.060 Y128.022 E251.76379
G1 X61.978 Y125.940 E251.85902
G1 X61.978 Y126.828 E251.88775
G1 X63.172 Y128.022 E251.94235
G1 X62.283 Y128.022 E251.97108
G1 X61.978 Y127.717 E251.98504
G1 Z0.650 F7800.000
G1 X139.004 Y129.004 F7800.000
G1 X60.996 Y129.004 E253.42731 F1800.000
G1 X60.996 Y70.996 E254.49981
G1 X139.004 Y70.996 E255.94209
G1 X139.004 Y128.944 E257.01348
G1 X139.423 Y129.423 F7800.000
G1 X60.577 Y129.423 E258.47124 F1800.000
G1 X60.577 Y70.577 E259.55923
G1 X139.423 Y70.577 E261.01700
G1 X139.423 Y129.363 E262.10388
G1 X139.800 Y129.800 F7800.000
G1 X60.200 Y129.800 E263.28306 F900.000
G1 X60.200 Y70.200 E264.16597
G1 X139.800 Y70.200 E265.34516
G1 X139.800 Y129.740 E266.22718
G1 X139.454 Y129.600 F7800.000
G1 X138.539 Y128.757 F7800.000
G1 X138.757 Y128.539 E266.23287 F1200.000
G1 X138.757 Y127.946 E266.24385
G1 X137.946 Y128.757 E266.26506
G1 X137.353 Y128.757 E266.27603
G1 X138.757 Y127.353 E266.31277
G1 X138.757 Y126.760 E266.32374
G1 X136.760 Y128.757 E266.37599
G1 X136.167 Y128.757 E266.38696
G1 X138.757 Y126.167 E266.45472
G1 X138.757 Y125.574 E266.46570
G1 X135.574 Y128.757 E266.54898
G1 X134.982 Y128.757 E266.55995
G1 X138.757 Y124.982 E266.65875
G1 X138.757 Y124.389 E266.66972
G1 X134.389 Y128.757 E266.78404
G1 X133.796 Y128.757 E266.79501
G1 X138.757 Y123.796 E266.92484
G1 X138.757 Y123.203 E266.93581
G1 X133.203 Y128.757 E267.08116
G1 X132.610 Y128.757 E267.09214
G1 X138.757 Y122.610 E267.25300
G1 X138.757 Y122.017 E267.26398
G1 X132.017 Y128.757 E267.44036
G1 X131.424 Y128.757 E267.45133
G1 X138.757 Y121.424 E267.64323
G1 X138.757 Y120.831 E267.65420
G1 X130.831 Y128.757 E267.86162
G1 X130.238 Y128.757 E267.87259
G1 X138.757 Y120.238 E268.09553
G1 X138.757 Y119.645 E268.10650
G1 X129.645 Y128.757 E268.34495
G1 X129.052 Y128.757 E268.35592
G1 X138.757 Y119.052 E268.60989
G1 X138.757 Y118.459 E268.62086
G1 X128.459 Y128.757 E268.89035
G1 X127.867 Y128.757 E268.90132
G1 X138.757 Y117.867 E269.18632
G1 X138.757 Y117.274 E269.19730
G1 X127.274 Y128.757 E269.49781
G1 X126.681 Y128.757 E269.50879
G1 X138.757 Y116.681 E269.82482
G1 X138.757 Y116.088 E269.83579
G1 X126.088 Y128.757 E270.16735
G1 X125.495 Y128.757 E270.17832
G1 X138.757 Y115.495 E270.52539
G1 X138.757 Y114.902 E270.53636
G1 X124.902 Y128.757 E270.89895
G1 X124.309 Y128.757 E270.90992
G1 X138.757 Y114.309 E271.28802
G1 X138.757 Y113.716 E271.29900
G1 X123.716 Y128.757 E271.69262
G1 X123.123 Y128.757 E271.70359
G1 X138.757 Y113.123 E272.11272
G1 X138.757 Y112.530 E272.12370
G1 X122.530 Y128.757 E272.54835
G1 X121.937 Y128.757 E272.55932
G1 X138.757 Y111.937 E272.99949
G1 X138.757 Y111.344 E273.01047
G1 X121.344 Y128.757 E273.46615
G1 X120.752 Y128.757 E273.47713
G1 X138.757 Y110.752 E273.94833
G1 X138.757 Y110.159 E273.95930
G1 X120.159 Y128.757 E274.44603
G1 X119.566 Y128.757 E274.45700
G1 X138.757 Y109.566 E274.95924
G1 X138.757 Y108.973 E274.97021
G1 X118.973 Y128.757 E275.48796
G1 X118.380 Y128.757 E275.49894
G1 X138.757 Y108.380 E276.03221
G1 X138.757 Y107.787 E276.04318
G1 X117.787 Y128.757 E276.59197
G1 X117.194 Y128.757 E276.60294
G1 X138.757 Y107.194 E277.16725
G1 X138.757 Y106.601 E277.17822
G1 X116.601 Y128.757 E277.75804
G1 X116.008 Y128.757 E277.76902
G1 X138.757 Y106.008 E278.36436
G1 X138.757 Y105.415 E278.37533
G1 X115.415 Y128.757 E278.98618
G1 X114.822 Y128.757 E278.99716
G1 X138.757 Y104.822 E279.62353
G1 X138.757 Y104.230 E279.63450
G1 X114.230 Y128.757 E280.27639
G1 X113.637 Y128.757 E280.28737
G1 X138.757 Y103.637 E280.94477
G1 X138.757 Y103.044 E280.95575
G1 X113.044 Y128.757 E281.62867
G1 X112.451 Y128.757 E281.63964
G1 X138.757 Y102.451 E282.32808
G1 X138.757 Y101.858 E282.33906
G1 X111.858 Y128.757 E283.04301
G1 X111.265 Y128.757 E283.05399
G1 X138.757 Y101.265 E283.77346
G1 X138.757 Y100.672 E283.78443
G1 X110.672 Y128.757 E284.51943
G1 X110.079 Y128.757 E284.53040
G1 X138.757 Y100.079 E285.28091
G1 X138.757 Y99.486 E285.29188
G1 X109.486 Y128.757 E286.05791
G1 X108.893 Y128.757 E286.06888
G1 X138.757 Y98.893 E286.85042
G1 X138.757 Y98.300 E286.86139
G1 X108.300 Y128.757 E287.65845
G1 X107.707 Y128.757 E287.66942
G1 X138.757 Y97.707 E288.48200
G1 X138.757 Y97.115 E288.49297
G1 X107.115 Y128.757 E289.32107
G1 X106.522 Y128.757 E289.33204
G1 X138.757 Y96.522 E290.17565
G1 X138.757 Y95.929 E290.18662
G1 X105.929 Y128.757 E291.04575
G1 X105.336 Y128.757 E291.05672
G1 X138.757 Y95.336 E291.93137
G1 X138.757 Y94.743 E291.94234
G1 X104.743 Y128.757 E292.83250
G1 X104.150 Y128.757 E292.84347
G1 X138.757 Y94.150 E293.74915
G1 X138.757 Y93.557 E293.76012
G1 X103.557 Y128.757 E294.68132
G1 X102.964 Y128.757 E294.69229
G1 X138.757 Y92.964 E295.62900
G1 X138.757 Y92.371 E295.63997
G1 X102.371 Y128.757 E296.59220
G1 X101.778 Y128.757 E296.60317
G1 X138.757 Y91.778 E297.57092
G1 X138.757 Y91.185 E297.58189
G1 X101.185 Y128.757 E298.56515
G1 X100.593 Y128.757 E298.57613
G1 X138.757 Y90.593 E299.57491
G1 X138.757 Y90.000 E299.58588
G1 X100.000 Y128.757 E300.60018
G1 X99.407 Y128.757 E300.61115
G1 X138.757 Y89.407 E301.64096
G1 X138.757 Y88.814 E301.65193
G1 X98.814 Y128.757 E302.69726
G1 X98.221 Y128.757 E302.70824
