; generated by Slic3r 1.2.9 on 2020-01-24 at 16:53:19

; external perimeters extrusion width = 0.40mm
; perimeters extrusion width = 0.48mm
; infill extrusion width = 0.48mm
; solid infill extrusion width = 0.48mm
; top infill extrusion width = 0.48mm
; support material extrusion width = 0.40mm

M107
M190 S60 ; set bed temperature
M104 S200 ; set temperature
G28 ; home all axes
G1 Z5 F5000 ; lift nozzle

M109 S200 ; wait for temperature to be reached
G21 ; set units to millimeters
G90 ; use absolute coordinates
M82 ; use absolute distances for extrusion
G92 E0
G1 Z0.350 F7800.000
G1 E-2.00000 F2400.00000
G92 E0
G1 X70.362 Y83.376 F7800.000
G1 E2.00000 F2400.00000
G1 X71.668 Y82.274 E2.05500 F1800.000
G1 X73.820 Y81.481 E2.12880
G1 X75.000 Y81.375 E2.16692
G1 X125.000 Y81.375 E3.77586
G1 X127.259 Y81.772 E3.84967
G1 X129.247 Y82.915 E3.92347 F1800.000
G1 X130.726 Y84.668 E3.99727
G1 X131.519 Y86.820 E4.07107
G1 X131.625 Y88.000 E4.10918
G1 X131.625 Y112.000 E4.88148
G1 X131.228 Y114.259 E4.95528
G1 X130.085 Y116.247 E5.02908
G1 X128.332 Y117.726 E5.10288
G1 X126.180 Y118.519 E5.17668
G1 X125.000 Y118.625 E5.21480
G1 X75.000 Y118.625 E6.82375
G1 X72.741 Y118.228 E6.89755
G1 X70.753 Y117.085 E6.97135
G1 X69.274 Y115.332 E7.04515
G1 X68.481 Y113.180 E7.11895
G1 X68.375 Y112.000 E7.15707
G1 X68.375 Y88.000 E7.92936
G1 X68.772 Y85.741 E8.00317
G1 X69.915 Y83.753 E8.07697
G1 X70.316 Y83.415 E8.09384
G1 E6.09384 F2400.00000
G92 E0
G1 X110.600 Y94.100 F7800.000
G1 E2.00000 F2400.00000
G1 X110.600 Y89.600 E2.14481 F1800.000
G1 X123.400 Y89.600 E2.55671
G1 X123.400 Y110.400 E3.22605
G1 X76.600 Y110.400 E4.73204
G1 X76.600 Y89.600 E5.40137
G1 X89.400 Y89.600 E5.81328
G1 X89.400 Y94.100 E5.95808
G1 X110.540 Y94.100 E6.63833
G1 X109.975 Y93.475 F7800.000
G1 X109.975 Y88.975 E6.78314 F1800.000
G1 X124.025 Y88.975 E7.23526
G1 X124.025 Y111.025 E7.94481
G1 X75.975 Y111.025 E9.49102
G1 X75.975 Y88.975 E10.20057
G1 X90.025 Y88.975 E10.65270
G1 X90.025 Y93.475 E10.79750
G1 X109.915 Y93.475 E11.43753
G1 X109.350 Y92.850 F7800.000
G1 X109.350 Y88.350 E11.58234 F1800.000
G1 X124.650 Y88.350 E12.07468
G1 X124.650 Y111.650 E12.82445
G1 X75.350 Y111.650 E14.41087
G1 X75.350 Y88.350 E15.16064
G1 X90.650 Y88.350 E15.65298
G1 X90.650 Y92.850 E15.79778
G1 X109.290 Y92.850 E16.39760
G1 X109.750 Y92.850 F7800.000
G1 X110.405 Y94.478 F7800.000
G1 X123.022 Y107.095 E16.97246 F1800.000
G1 X123.022 Y107.980 E17.00097
G1 X109.520 Y94.478 E17.61615
G1 X108.635 Y94.478 E17.64466
G1 X123.022 Y108.865 E18.30015
G1 X123.022 Y109.749 E18.32866
G1 X107.751 Y94.478 E19.02447
G1 X106.866 Y94.478 E19.05298
G1 X122.409 Y110.022 E19.76119
G1 X121.524 Y110.022 E19.78970
G1 X105.981 Y94.478 E20.49792
G1 X105.096 Y94.478 E20.52642
G1 X120.639 Y110.022 E21.23464
G1 X119.755 Y110.022 E21.26315
G1 X104.211 Y94.478 E21.97136
G1 X103.326 Y94.478 E21.99987
G1 X118.870 Y110.022 E22.70808
G1 X117.985 Y110.022 E22.73659
G1 X102.442 Y94.478 E23.44481
G1 X101.557 Y94.478 E23.47331
G1 X117.100 Y110.022 E24.18153
G1 X116.215 Y110.022 E24.21004
G1 X100.672 Y94.478 E24.91825
G1 X99.787 Y94.478 E24.94676
G1 X115.331 Y110.022 E25.65497
G1 X114.446 Y110.022 E25.68348
G1 X98.902 Y94.478 E26.39170
G1 X98.018 Y94.478 E26.42020
G1 X113.561 Y110.022 E27.12842
G1 X112.676 Y110.022 E27.15693
G1 X97.133 Y94.478 E27.86514
G1 X96.248 Y94.478 E27.89365
G1 X111.791 Y110.022 E28.60186
G1 X110.906 Y110.022 E28.63037
G1 X95.363 Y94.478 E29.33858
G1 X94.478 Y94.478 E29.36709
G1 X110.022 Y110.022 E30.07531
G1 X109.137 Y110.022 E30.10381
G1 X93.594 Y94.478 E30.81203
G1 X92.709 Y94.478 E30.84054
G1 X108.252 Y110.022 E31.54875
G1 X107.367 Y110.022 E31.57726
G1 X91.824 Y94.478 E32.28547
G1 X90.939 Y94.478 E32.31398
G1 X106.482 Y110.022 E33.02220
G1 X105.598 Y110.022 E33.05070
G1 X90.054 Y94.478 E33.75892
G1 X89.169 Y94.478 E33.78743
G1 X104.713 Y110.022 E34.49564
G1 X103.828 Y110.022 E34.52415
G1 X83.785 Y89.978 E35.43740
G1 X82.900 Y89.978 E35.46591
G1 X102.943 Y110.022 E36.37916
G1 X102.058 Y110.022 E36.40767
G1 X82.015 Y89.978 E37.32092
G1 X81.130 Y89.978 E37.34943
G1 X101.173 Y110.022 E38.26268
G1 X100.289 Y110.022 E38.29119
G1 X80.245 Y89.978 E39.20444
G1 X79.361 Y89.978 E39.23295
G1 X99.404 Y110.022 E40.14620
G1 X98.519 Y110.022 E40.17471
G1 X78.476 Y89.978 E41.08796
G1 X77.591 Y89.978 E41.11647
G1 X97.634 Y110.022 E42.02972
G1 X96.749 Y110.022 E42.05823
G1 X76.978 Y90.251 E42.95908
G1 X76.978 Y91.135 E42.98759
G1 X95.865 Y110.022 E43.84812
G1 X94.980 Y110.022 E43.87662
G1 X76.978 Y92.020 E44.69684
G1 X76.978 Y92.905 E44.72535
G1 X94.095 Y110.022 E45.50525
G1 X93.210 Y110.022 E45.53376
G1 X76.978 Y93.790 E46.27334
G1 X76.978 Y94.675 E46.30185
G1 X92.325 Y110.022 E47.00112
G1 X91.440 Y110.022 E47.02962
G1 X76.978 Y95.560 E47.68858
G1 X76.978 Y96.444 E47.71708
G1 X90.556 Y110.022 E48.33572
G1 X89.671 Y110.022 E48.36423
G1 X76.978 Y97.329 E48.94255
G1 X76.978 Y98.214 E48.97106
G1 X88.786 Y110.022 E49.50906
G1 X87.901 Y110.022 E49.53757
G1 X76.978 Y99.099 E50.03526
G1 X76.978 Y99.984 E50.06377
G1 X87.016 Y110.022 E50.52114
G1 X86.132 Y110.022 E50.54965
G1 X76.978 Y100.868 E50.96671
G1 X76.978 Y101.753 E50.99522
G1 X85.247 Y110.022 E51.37196
G1 X84.362 Y110.022 E51.40047
G1 X76.978 Y102.638 E51.73689
G1 X76.978 Y103.523 E51.76540
G1 X83.477 Y110.022 E52.06151
G1 X82.592 Y110.022 E52.09002
G1 X76.978 Y104.408 E52.34581
G1 X76.978 Y105.292 E52.37432
G1 X81.708 Y110.022 E52.58980
G1 X80.823 Y110.022 E52.61831
G1 X76.978 Y106.177 E52.79347
G1 X76.978 Y107.062 E52.82198
G1 X79.938 Y110.022 E52.95683
G1 X79.053 Y110.022 E52.98533
G1 X76.978 Y107.947 E53.07987
G1 X76.978 Y108.832 E53.10837
G1 X78.168 Y110.022 E53.16259
G1 X77.283 Y110.022 E53.19110
G1 X76.978 Y109.717 E53.20500
G1 X89.022 Y94.331 F7800.000
G1 X84.669 Y89.978 E53.40330 F1800.000
G1 X85.554 Y89.978 E53.43181
G1 X89.022 Y93.446 E53.58980
G1 X89.022 Y92.561 E53.61831
G1 X86.439 Y89.978 E53.73598
G1 X87.324 Y89.978 E53.76449
G1 X89.022 Y91.676 E53.84184
G1 X89.022 Y90.791 E53.87035
G1 X88.209 Y89.978 E53.90739
G1 E51.90739 F2400.00000
G92 E0
G1 X110.978 Y94.167 F7800.000
G1 E2.00000 F2400.00000
G1 X123.022 Y106.210 E2.54874 F1800.000
G1 X123.022 Y105.325 E2.57725
G1 X110.978 Y93.282 E3.12599
G1 X110.978 Y92.397 E3.15450
G1 X123.022 Y104.441 E3.70324
G1 X123.022 Y103.556 E3.73174
G1 X110.978 Y91.512 E4.28049
G1 X110.978 Y90.628 E4.30899
G1 X123.022 Y102.671 E4.85773
G1 X123.022 Y101.786 E4.88624
G1 X111.214 Y89.978 E5.42425
G1 X112.099 Y89.978 E5.45276
G1 X123.022 Y100.901 E5.95045
G1 X123.022 Y100.016 E5.97896
G1 X112.984 Y89.978 E6.43633
G1 X113.868 Y89.978 E6.46484
G1 X123.022 Y99.132 E6.88190
G1 X123.022 Y98.247 E6.91041
G1 X114.753 Y89.978 E7.28715
G1 X115.638 Y89.978 E7.31566
G1 X123.022 Y97.362 E7.65209
G1 X123.022 Y96.477 E7.68059
G1 X116.523 Y89.978 E7.97671
G1 X117.408 Y89.978 E8.00521
G1 X123.022 Y95.592 E8.26101
G1 X123.022 Y94.708 E8.28952
G1 X118.292 Y89.978 E8.50500
G1 X119.177 Y89.978 E8.53351
G1 X123.022 Y93.823 E8.70867
G1 X123.022 Y92.938 E8.73718
G1 X120.062 Y89.978 E8.87203
G1 X120.947 Y89.978 E8.90054
G1 X123.022 Y92.053 E8.99507
G1 X123.022 Y91.168 E9.02358
G1 X121.832 Y89.978 E9.07780
G1 X122.717 Y89.978 E9.10631
G1 X123.022 Y90.283 E9.12021
G1 Z0.350 F7800.000
G1 Z0.450 F7800.000
G1 Z0.650 F7800.000
G1 X109.996 Y93.496 F7800.000
G1 X109.996 Y88.996 E9.20341 F1800.000
G1 X124.004 Y88.996 E9.46240
G1 X124.004 Y111.004 E9.86929
G1 X75.996 Y111.004 E10.75690
G1 X75.996 Y88.996 E11.16380
G1 X90.004 Y88.996 E11.42279
G1 X90.004 Y93.496 E11.50599
G1 X109.936 Y93.496 E11.87452
G1 X109.577 Y93.077 F7800.000
G1 X109.577 Y88.577 E11.95772 F1800.000
G1 X124.423 Y88.577 E12.23219
G1 X124.423 Y111.423 E12.65458
G1 X75.577 Y111.423 E13.55768
G1 X75.577 Y88.577 E13.98007
G1 X90.423 Y88.577 E14.25454
G1 X90.423 Y93.077 E14.33774
G1 X109.517 Y93.077 E14.69078
G1 X109.200 Y92.700 F7800.000
G1 X109.200 Y88.200 E14.75744 F900.000
G1 X124.800 Y88.200 E14.98854
G1 X124.800 Y111.800 E15.33815
G1 X75.200 Y111.800 E16.07292
G1 X75.200 Y88.200 E16.42253
G1 X90.800 Y88.200 E16.65362
G1 X90.800 Y92.700 E16.72028
G1 X109.140 Y92.700 E16.99197
G1 X109.600 Y92.700 F7800.000
G1 X110.243 Y89.458 F7800.000
G1 X110.458 Y89.243 E16.99764 F1200.000
G1 X111.055 Y89.243 E17.00874
G1 X110.243 Y90.055 E17.03011
G1 X110.243 Y90.651 E17.04121
G1 X111.651 Y89.243 E17.07828
G1 X112.248 Y89.243 E17.08938
G1 X110.243 Y91.248 E17.14216
G1 X110.243 Y91.844 E17.15326
G1 X112.844 Y89.243 E17.22173
G1 X113.441 Y89.243 E17.23284
G1 X110.243 Y92.441 E17.31701
G1 X110.243 Y93.037 E17.32812
G1 X114.037 Y89.243 E17.42800
G1 X123.539 Y110.757 F7800.000
G1 X123.757 Y110.539 E17.43373 F1200.000
G1 X123.757 Y109.943 E17.44483
G1 X122.943 Y110.757 E17.46626
G1 X122.346 Y110.757 E17.47737
G1 X123.757 Y109.346 E17.51450
G1 X123.757 Y108.750 E17.52561
G1 X121.750 Y110.757 E17.57845
G1 X121.153 Y110.757 E17.58955
G1 X123.757 Y108.153 E17.65809
G1 X123.757 Y107.557 E17.66919
G1 X120.557 Y110.757 E17.75344
G1 X119.960 Y110.757 E17.76454
G1 X123.757 Y106.960 E17.86449
G1 X123.757 Y106.364 E17.87559
G1 X119.364 Y110.757 E17.99124
G1 X118.767 Y110.757 E18.00234
G1 X123.757 Y105.767 E18.13369
G1 X123.757 Y105.171 E18.14480
G1 X118.171 Y110.757 E18.29185
G1 X117.575 Y110.757 E18.30295
G1 X123.757 Y104.575 E18.46571
G1 X123.757 Y103.978 E18.47681
G1 X116.978 Y110.757 E18.65527
G1 X116.382 Y110.757 E18.66637
G1 X123.757 Y103.382 E18.86053
G1 X123.757 Y102.785 E18.87164
G1 X115.785 Y110.757 E19.08150
G1 X115.189 Y110.757 E19.09260
G1 X123.757 Y102.189 E19.31817
G1 X123.757 Y101.592 E19.32927
G1 X114.592 Y110.757 E19.57054
G1 X113.996 Y110.757 E19.58164
G1 X123.757 Y100.996 E19.83861
G1 X123.757 Y100.399 E19.84971
G1 X113.399 Y110.757 E20.12239
G1 X112.803 Y110.757 E20.13349
G1 X123.757 Y99.803 E20.42186
G1 X123.757 Y99.206 E20.43297
G1 X112.206 Y110.757 E20.73705
G1 X111.610 Y110.757 E20.74815
G1 X123.757 Y98.610 E21.06793
G1 X123.757 Y98.014 E21.07903
G1 X111.014 Y110.757 E21.41451
G1 X110.417 Y110.757 E21.42562
G1 X123.757 Y97.417 E21.77680
G1 X123.757 Y96.821 E21.78790
G1 X109.821 Y110.757 E22.15479
G1 X109.224 Y110.757 E22.16589
G1 X123.757 Y96.224 E22.54848
G1 X123.757 Y95.628 E22.55959
G1 X108.628 Y110.757 E22.95788
G1 X108.031 Y110.757 E22.96898
G1 X123.757 Y95.031 E23.38297
G1 X123.757 Y94.435 E23.39408
G1 X107.435 Y110.757 E23.82377
G1 X106.838 Y110.757 E23.83488
G1 X123.757 Y93.838 E24.28028
G1 X123.757 Y93.242 E24.29138
G1 X106.242 Y110.757 E24.75248
G1 X105.646 Y110.757 E24.76358
G1 X123.757 Y92.646 E25.24039
G1 X123.757 Y92.049 E25.25149
G1 X105.049 Y110.757 E25.74399
G1 X104.453 Y110.757 E25.75510
G1 X123.757 Y91.453 E26.26331
G1 X123.757 Y90.856 E26.27441
G1 X103.856 Y110.757 E26.79832
G1 X103.260 Y110.757 E26.80942
G1 X123.757 Y90.260 E27.34904
G1 X123.757 Y89.663 E27.36014
G1 X102.663 Y110.757 E27.91545
G1 X102.067 Y110.757 E27.92656
G1 X123.580 Y89.243 E28.49293
G1 X122.984 Y89.243 E28.50403
G1 X101.470 Y110.757 E29.07041
G1 X100.874 Y110.757 E29.08151
G1 X122.387 Y89.243 E29.64789
G1 X121.791 Y89.243 E29.65899
G1 X100.278 Y110.757 E30.22536
G1 X99.681 Y110.757 E30.23647
G1 X121.195 Y89.243 E30.80284
G1 X120.598 Y89.243 E30.81394
G1 X99.085 Y110.757 E31.38032
G1 X98.488 Y110.757 E31.39142
G1 X120.002 Y89.243 E31.95779
G1 X119.405 Y89.243 E31.96890
G1 X97.892 Y110.757 E32.53527
G1 X97.295 Y110.757 E32.54637
G1 X118.809 Y89.243 E33.11275
G1 X118.212 Y89.243 E33.12385
G1 X96.699 Y110.757 E33.69022
G1 X96.102 Y110.757 E33.70133
G1 X117.616 Y89.243 E34.26770
G1 X117.019 Y89.243 E34.27880
G1 X95.506 Y110.757 E34.84518
G1 X94.910 Y110.757 E34.85628
G1 X116.423 Y89.243 E35.42265
G1 X115.826 Y89.243 E35.43376
G1 X94.313 Y110.757 E36.00013
G1 X93.717 Y110.757 E36.01124
G1 X115.230 Y89.243 E36.57761
G1 X114.634 Y89.243 E36.58871
G1 X93.120 Y110.757 E37.15509
G1 X92.524 Y110.757 E37.16619
G1 X109.537 Y93.743 E37.61409
G1 X108.941 Y93.743 E37.62520
G1 X91.927 Y110.757 E38.07310
G1 X91.331 Y110.757 E38.08420
G1 X108.344 Y93.743 E38.53211
G1 X107.748 Y93.743 E38.54321
G1 X90.734 Y110.757 E38.99112
G1 X90.138 Y110.757 E39.00222
G1 X107.151 Y93.743 E39.45012
G1 X106.555 Y93.743 E39.46123
G1 X89.542 Y110.757 E39.90913
G1 X88.945 Y110.757 E39.92023
G1 X105.958 Y93.743 E40.36814
G1 X105.362 Y93.743 E40.37924
G1 X88.349 Y110.757 E40.82715
G1 X87.752 Y110.757 E40.83825
G1 X104.766 Y93.743 E41.28615
G1 X104.169 Y93.743 E41.29726
G1 X87.156 Y110.757 E41.74516
G1 X86.559 Y110.757 E41.75626
G1 X103.573 Y93.743 E42.20417
G1 X102.976 Y93.743 E42.21527
G1 X85.963 Y110.757 E42.66318
G1 X85.366 Y110.757 E42.67428
G1 X102.380 Y93.743 E43.12218
G1 X101.783 Y93.743 E43.13329
G1 X84.770 Y110.757 E43.58119
G1 X84.173 Y110.757 E43.59229
G1 X101.187 Y93.743 E44.04020
G1 X100.590 Y93.743 E44.05130
G1 X83.577 Y110.757 E44.49921
G1 X82.981 Y110.757 E44.51031
G1 X99.994 Y93.743 E44.95821
G1 X99.398 Y93.743 E44.96932
G1 X82.384 Y110.757 E45.41722
G1 X81.788 Y110.757 E45.42832
G1 X98.801 Y93.743 E45.87623
G1 X98.205 Y93.743 E45.88733
G1 X81.191 Y110.757 E46.33524
G1 X80.595 Y110.757 E46.34634
G1 X97.608 Y93.743 E46.79424
G1 X97.012 Y93.743 E46.80535
G1 X79.998 Y110.757 E47.25325
G1 X79.402 Y110.757 E47.26435
G1 X96.415 Y93.743 E47.71226
G1 X95.819 Y93.743 E47.72336
G1 X78.805 Y110.757 E48.17127
G1 X78.209 Y110.757 E48.18237
G1 X95.222 Y93.743 E48.63027
G1 X94.626 Y93.743 E48.64138
G1 X77.613 Y110.757 E49.08928
G1 X77.016 Y110.757 E49.10038
G1 X94.030 Y93.743 E49.54829
G1 X93.433 Y93.743 E49.55939
G1 X76.420 Y110.757 E50.00729
G1 X76.243 Y110.337 E50.01578
G1 X92.837 Y93.743 E50.45262
G1 X92.240 Y93.743 E50.46372
G1 X76.243 Y109.740 E50.88487
G1 X76.243 Y109.144 E50.89597
G1 X91.644 Y93.743 E51.30141
G1 X91.047 Y93.743 E51.31252
G1 X76.243 Y108.547 E51.70225
G1 X76.243 Y107.951 E51.71336
G1 X90.451 Y93.743 E52.08739
G1 X89.854 Y93.743 E52.09850
G1 X76.243 Y107.354 E52.45683
G1 X76.243 Y106.758 E52.46793
G1 X89.757 Y93.245 E52.82369
G1 X89.757 Y92.648 E52.83480
G1 X76.243 Y106.162 E53.19056
G1 X76.243 Y105.565 E53.20166
G1 X89.757 Y92.052 E53.55742
G1 X89.757 Y91.455 E53.56853
G1 X76.243 Y104.969 E53.92429
G1 X76.243 Y104.372 E53.93539
G1 X89.757 Y90.859 E54.29115
G1 X89.757 Y90.262 E54.30226
G1 X76.243 Y103.776 E54.65802
G1 X76.243 Y103.179 E54.66912
G1 X89.757 Y89.666 E55.02488
G1 X89.583 Y89.243 E55.03339
G1 X76.243 Y102.583 E55.38457
G1 X76.243 Y101.986 E55.39568
G1 X88.986 Y89.243 E55.73116
G1 X88.390 Y89.243 E55.74226
G1 X76.243 Y101.390 E56.06204
G1 X76.243 Y100.793 E56.07314
G1 X87.793 Y89.243 E56.37722
G1 X87.197 Y89.243 E56.38832
G1 X76.243 Y100.197 E56.67670
G1 X76.243 Y99.601 E56.68780
G1 X86.601 Y89.243 E56.96047
G1 X86.004 Y89.243 E56.97158
G1 X76.243 Y99.004 E57.22855
G1 X76.243 Y98.408 E57.23965
G1 X85.408 Y89.243 E57.48092
G1 X84.811 Y89.243 E57.49202
G1 X76.243 Y97.811 E57.71758
G1 X76.243 Y97.215 E57.72869
G1 X84.215 Y89.243 E57.93855
G1 X83.618 Y89.243 E57.94965
G1 X76.243 Y96.618 E58.14381
G1 X76.243 Y96.022 E58.15492
G1 X83.022 Y89.243 E58.33338
G1 X82.425 Y89.243 E58.34448
G1 X76.243 Y95.425 E58.50723
G1 X76.243 Y94.829 E58.51834
G1 X81.829 Y89.243 E58.66539
G1 X81.233 Y89.243 E58.67649
G1 X76.243 Y94.233 E58.80784
G1 X76.243 Y93.636 E58.81895
G1 X80.636 Y89.243 E58.93460
G1 X80.040 Y89.243 E58.94570
G1 X76.243 Y93.040 E59.04564
G1 X76.243 Y92.443 E59.05675
G1 X79.443 Y89.243 E59.14099
G1 X78.847 Y89.243 E59.15209
G1 X76.243 Y91.847 E59.22064
G1 X76.243 Y91.250 E59.23174
G1 X78.250 Y89.243 E59.28458
G1 X77.654 Y89.243 E59.29568
G1 X76.243 Y90.654 E59.33282
G1 X76.243 Y90.057 E59.34392
G1 X77.057 Y89.243 E59.36535
G1 X76.461 Y89.243 E59.37646
G1 X76.243 Y89.461 E59.38219
G1 Z0.800 F7800.000
G1 Z0.950 F7800.000
G1 E57.38219 F2400.00000
G92 E0
G1 X109.996 Y93.496 F7800.000
G1 E2.00000 F2400.00000
G1 X109.996 Y88.996 E2.08320 F1800.000
G1 X124.004 Y88.996 E2.34219
G1 X124.004 Y111.004 E2.74909
G1 X75.996 Y111.004 E3.63670
G1 X75.996 Y88.996 E4.04360
G1 X90.004 Y88.996 E4.30258
G1 X90.004 Y93.496 E4.38578
G1 X109.936 Y93.496 E4.75431
G1 X109.577 Y93.077 F7800.000
G1 X109.577 Y88.577 E4.83751 F1800.000
G1 X124.423 Y88.577 E5.11198
G1 X124.423 Y111.423 E5.53437
